X: 207
T: Fire on the Mountain
B: canberra pickers and fiddlers
B: old time tunes update
B: tunes
M:2/4
L:1/8
Q: 1/4=100
K:G
V:1 
"*"d/e/d/c/ BB/c/|dg B[Ac]|[G/d/]e/d/c/ B/A/G/B/|[DA]^F G2|
d/e/d/c/ Bd|[Gd]g [GB]c|d/e/d/c/ B/A/G/B/ |A^F G2|
[G/d/]e/d/c/ Bc|dg ec|d/e/d/c/ B/A/G/B/ |[DA]^F G2||
GG G/D/B,/B,/|[CE][CE] [CF]>[CF]|E/C/E/E/ D/B,/D/D/|EE D2|
GG/G/ B,B,/B,/|CC/C/ F/E/D/F/ |D/C/E/E/ D/B,/D/D/|EE/E/ [G,2D2]|
GG/G/ B,B,/B,/|CC F>F|E/C/E/E/ D/B,/D/D/|[C/E/][C/E/][C/E/][C/E/] [G,2D2]||
"*"d/e/d/c/ B/c/d/B/ |A^F G2||
"*"[G/d/]e/d/c/ [G/B/]G/B/c/|[G/d/]de/ [Gf]>e|d/e/d/c/ B/G/B/c/|[G/d/]ga/ [G2g2]:|2 A^F G>G||
"*"[G/d/]e/d/c/ [G/B/]G/B/c/ [D/g/]de/ [Gf]>e|d/e/d/c/ B/G/B/c/|[G/d/]ga/ [G2g2|
"*"d/e/d/c/ Bc|dg Bc|d/e/d/c/ B/A/G/B/ |A^F G>G||
% abcbook-tune_id 67a7d9eceffff1af78cdaac6
% abcbook-tune_composer_id 
% abcbook-link-0 https://tunearch.org/w/images/5/51/Fire_on_the_Mountain.mp3
% abcbook-link-title-0 Fire On the Mountain
% abcbook-boost 0
% abcbook-difficulty 0
% abcbook-tags old time tunes
% abcbook-tablature 
% abcbook-transpose 
% abcbook-tuning GDGD
% abcbook-lastupdated 1739143121564
% abcbook-src-url 
% abcbook-soundfonts 
% abcbook-repeats 1


